X:067
T: Coughlan's March
N: O'Farrell's Pocket Companion v.1 (Sky ed. p.47)
N: "Irish"
M: C
L: 1/16
R: march
Q: 120
K: G
GA|B3cB2e2 d2G2G3B|A3B ABcd edcB A2GA|
B3cB2e2 d2G2G3g|edcB dcBA G4 G2 :|
Bc|d3e d2ef g2d2 d2ef|gfed edcB B2A2A2GA|
B3cB2e2 d2G2G3g|edcB dcBA G4 G2 :|
